apps/penxle.com/src/assets/icons/bookmark-outline.svg

<svg fill="currentColor" viewBox="0 0 16 21" xmlns="http://www.w3.org/2000/svg">
  <path
    fill-rule="evenodd"
    clip-rule="evenodd"
    d="M7.83819 0.250016C6.13192 0.249748 5.0907 0.249584 4.22319 0.531458C2.47267 1.10024 1.10024 2.47267 0.531458 4.22319C0.249584 5.0907 0.249748 6.13192 0.250016 7.83819L0.250033 15.4214C0.250026 16.3511 0.250021 17.0942 0.295094 17.6664C0.339507 18.2303 0.433968 18.7651 0.720222 19.1894C1.29463 20.041 2.29573 20.5014 3.3161 20.3834C3.82459 20.3245 4.29212 20.0482 4.74912 19.715C5.21291 19.3768 5.7771 18.8932 6.48301 18.2881L6.50882 18.266C7.19961 17.6739 7.39625 17.5218 7.58359 17.4556C7.85305 17.3604 8.14701 17.3604 8.41648 17.4556C8.60382 17.5218 8.80046 17.6739 9.49125 18.266L9.51705 18.2881C10.223 18.8932 10.7872 19.3768 11.2509 19.715C11.7079 20.0482 12.1755 20.3245 12.684 20.3834C13.7043 20.5014 14.7054 20.041 15.2798 19.1894C15.5661 18.7651 15.6606 18.2303 15.705 17.6664C15.75 17.0942 15.75 16.3512 15.75 15.4214L15.7501 7.8382C15.7503 6.13192 15.7505 5.09071 15.4686 4.22319C14.8998 2.47267 13.5274 1.10024 11.7769 0.531458C10.9094 0.249584 9.86815 0.249748 8.16187 0.250016H7.83819ZM4.68671 1.95804C5.29842 1.75929 6.08038 1.75003 8.00003 1.75003C9.91969 1.75003 10.7016 1.75929 11.3134 1.95804C12.6072 2.37844 13.6216 3.39285 14.042 4.68671C14.2408 5.29842 14.25 6.08038 14.25 8.00003V15.3874C14.25 16.3589 14.2495 17.0425 14.2096 17.5486C14.1685 18.0701 14.092 18.268 14.0363 18.3506C13.7752 18.7377 13.3202 18.947 12.8564 18.8933C12.7574 18.8819 12.5573 18.8111 12.1347 18.503C11.7245 18.2038 11.205 17.7594 10.4674 17.1271L10.3682 17.042C9.82611 16.5765 9.40335 16.2134 8.91621 16.0413C8.32339 15.8318 7.67668 15.8318 7.08385 16.0413C6.59671 16.2134 6.17396 16.5765 5.63185 17.042L5.53263 17.1271C4.79502 17.7594 4.27561 18.2038 3.86538 18.503C3.44273 18.8111 3.24264 18.8819 3.1437 18.8933C2.6799 18.947 2.22485 18.7377 1.96376 18.3506C1.90805 18.268 1.83154 18.0701 1.79046 17.5486C1.75059 17.0425 1.75003 16.3589 1.75003 15.3874V8.00003C1.75003 6.08038 1.75929 5.29842 1.95804 4.68671C2.37844 3.39285 3.39285 2.37844 4.68671 1.95804Z"
  />
</svg>

<svg xmlns="http://www.w3.org/2000/svg" fill="currentColor" viewBox="0 0 16 21">
  <path
    fill-rule="evenodd"
    d="M7.838.25c-1.706 0-2.747 0-3.615.281A5.75 5.75 0 0 0 .531 4.223C.25 5.091.25 6.132.25 7.838v7.583c0 .93 0 1.673.045 2.245.045.564.139 1.1.425 1.523a2.75 2.75 0 0 0 2.596 1.194c.509-.058.976-.335 1.433-.668.464-.338 1.028-.822 1.734-1.427l.026-.022c.69-.592.887-.744 1.075-.81a1.25 1.25 0 0 1 .832 0c.188.066.384.218 1.075.81l.026.022c.706.605 1.27 1.089 1.734 1.427.457.333.925.61 1.433.668a2.75 2.75 0 0 0 2.596-1.194c.286-.424.38-.959.425-1.523.045-.572.045-1.315.045-2.245V7.838c0-1.706 0-2.747-.281-3.615A5.75 5.75 0 0 0 11.777.531C10.909.25 9.868.25 8.162.25h-.324ZM4.687 1.958C5.298 1.759 6.08 1.75 8 1.75c1.92 0 2.702.01 3.313.208a4.25 4.25 0 0 1 2.729 2.729c.199.611.208 1.393.208 3.313v7.387c0 .972 0 1.655-.04 2.162-.042.521-.118.719-.174.802a1.25 1.25 0 0 1-1.18.542c-.099-.011-.299-.082-.721-.39-.41-.3-.93-.744-1.668-1.376l-.099-.085c-.542-.466-.965-.829-1.452-1a2.75 2.75 0 0 0-1.832 0c-.487.171-.91.534-1.452 1l-.1.085c-.737.632-1.256 1.077-1.667 1.376-.422.308-.622.379-.721.39a1.25 1.25 0 0 1-1.18-.542c-.056-.083-.132-.28-.174-.802-.04-.506-.04-1.19-.04-2.162V8c0-1.92.01-2.702.208-3.313a4.25 4.25 0 0 1 2.729-2.729Z"
    clip-rule="evenodd"
  />
</svg>
